icon_installer/data/icons/scalable/actions/show-mail-archive-symbolic.svg

<?xml version="1.0" encoding="UTF-8"?>
<svg height="16px" viewBox="0 0 16 16" width="16px" xmlns="http://www.w3.org/2000/svg">
    <g fill="#222222">
        <path d="m 0 4 v 9.976562 c 0 1.199219 0.980469 2 2.1875 2 h 11.625 c 1.207031 0 2.1875 -1.019531 2.1875 -2.21875 v -9.757812 s 0 -2 -2 -2 v 12 h -12 v -12 c -2 0 -2 2 -2 2 z m 0 0"/>
        <path d="m 1 9 v 1 h 3.625 c 0.023438 0.300781 -0.007812 0.605469 0.300781 1.222656 c 0.4375 0.871094 1.40625 1.777344 3.074219 1.777344 s 2.636719 -0.90625 3.074219 -1.777344 c 0.304687 -0.617187 0.277343 -0.921875 0.300781 -1.222656 h 2.625 v -1 h -3.5 v 0.5 s -0.007812 0.648438 -0.324219 1.277344 c -0.3125 0.628906 -0.84375 1.222656 -2.175781 1.222656 s -1.863281 -0.59375 -2.175781 -1.222656 c -0.316407 -0.628906 -0.324219 -1.277344 -0.324219 -1.277344 v -0.5 z m 0 0"/>
        <path d="m 3 0 v 1 h 10 v -1 z m 0.5 2 c -0.277344 0 -0.5 0.222656 -0.5 0.5 v 5.5 h 1 v -4.375 l 4 3 l 4 -3 v 4.375 h 1 v -5.5 c 0 -0.277344 -0.222656 -0.5 -0.5 -0.5 z m 1.332031 1 h 6.335938 l -3.167969 2.375 z m 0 0"/>
    </g>
</svg>

<svg xmlns="http://www.w3.org/2000/svg" width="16" height="16"><g fill="#222"><path d="M0 4v9.977c0 1.199.98 2 2.188 2h11.624c1.208 0 2.188-1.02 2.188-2.22V4s0-2-2-2v12H2V2C0 2 0 4 0 4zm0 0"/><path d="M1 9v1h3.625c.023.3-.008.605.3 1.223C5.364 12.093 6.333 13 8 13s2.637-.906 3.074-1.777c.305-.618.278-.922.301-1.223H14V9h-3.5v.5s-.008.648-.324 1.277C9.863 11.407 9.332 12 8 12s-1.863-.594-2.176-1.223C5.508 10.148 5.5 9.5 5.5 9.5V9zm2-9v1h10V0zm.5 2c-.277 0-.5.223-.5.5V8h1V3.625l4 3 4-3V8h1V2.5c0-.277-.223-.5-.5-.5zm1.332 1h6.336L8 5.375zm0 0"/></g></svg>
